X: 21161
M: 2/4
L: 1/16
K: G
V: 1 name="1"
d2 |\
g3d e3c | BcAB G2Bc | d2d2 d2^c2 | d4 d2c2 |\
d2 |\
cdBc A2d2 | cdBc A2d2 | cdBc ABGA | FGEF D2d2 |\
cdBc A2a2 | cdBc A2a2 | cdBc a2c2 | d4 "^D.C."z2 |]
dc |\


